actions/symbolic/edit-copy-symbolic.svg

<?xml version="1.0" encoding="UTF-8" standalone="no"?>
<svg
   height="16"
   width="16"
   version="1.1"
   id="svg6"
   xml:space="preserve"
   xmlns="http://www.w3.org/2000/svg"
   xmlns:svg="http://www.w3.org/2000/svg"><defs
     id="defs10" /><path
     id="rect322"
     style="opacity:1;fill:#555761;stroke:none;stroke-width:1;stroke-linecap:round;-inkscape-stroke:none;stop-color:#000000"
     d="M 3,0 C 1.8920044,0 1,0.89200443 1,2 v 8 c 0,1.107996 0.8920044,2 2,2 H 4 V 11 H 3 C 2.4460024,11 2,10.553996 2,10 V 2 C 2,1.4460024 2.4460024,1 3,1 h 6 c 0.5539972,0 1,0.4460024 1,1 v 1 h 1 V 2 C 11,0.89200443 10.107996,0 9,0 Z M 7,4 C 5.8920022,4 5,4.8920022 5,6 v 8 c 0,1.107998 0.8920022,2 2,2 h 6 c 1.107998,0 2,-0.892002 2,-2 V 6 C 15,4.8920022 14.107998,4 13,4 Z m 0,1 h 6 c 0.553998,0 1,0.4460012 1,1 v 8 c 0,0.553998 -0.446002,1 -1,1 H 7 C 6.4460012,15 6,14.553998 6,14 V 6 C 6,5.4460012 6.4460012,5 7,5 Z M 7.25,7 C 7.1119288,7 7,7.1119288 7,7.25 v 0.5 C 7,7.8889999 7.1120001,8 7.25,8 h 5.5 C 12.888071,8 13,7.8880712 13,7.75 V 7.25 C 13,7.1119288 12.888071,7 12.75,7 Z m 0,2 C 7.1119288,9 7,9.1119288 7,9.25 v 0.5 C 7,9.8889999 7.1120001,10 7.25,10 h 5.5 C 12.888071,10 13,9.8880712 13,9.75 V 9.25 C 13,9.1119288 12.888071,9 12.75,9 Z m 0,2 C 7.1119288,11 7,11.111929 7,11.25 v 0.5 C 7,11.889 7.1120001,12 7.25,12 h 2.5 C 9.8880712,12 10,11.888071 10,11.75 v -0.5 C 10,11.111929 9.8880712,11 9.75,11 Z" /></svg>

<svg
        xmlns='http://www.w3.org/2000/svg'
        xmlns:svg='http://www.w3.org/2000/svg'
        id='svg6'
        width='16'
        height='16'>
  <path
          id='rect322'
          opacity='1'
          fill='url(#gpa:foreground) #555761'
          fill-opacity='1'
          fill-rule='nonzero'
          stroke='none'
          stroke-width='1'
          stroke-linecap='round'
          d='M 3 0 C 1.892 0, 1 0.892004, 1 2 L 1 10 C 1 11.108, 1.892 12, 3 12 L 4 12 L 4 11 L 3 11 C 2.446 11, 2 10.554, 2 10 L 2 2 C 2 1.446, 2.446 1, 3 1 L 9 1 C 9.554 1, 10 1.446, 10 2 L 10 3 L 11 3 L 11 2 C 11 0.892004, 10.108 0, 9 0 Z M 7 4 C 5.892 4, 5 4.892, 5 6 L 5 14 C 5 15.108, 5.892 16, 7 16 L 13 16 C 14.108 16, 15 15.108, 15 14 L 15 6 C 15 4.892, 14.108 4, 13 4 Z M 7 5 L 13 5 C 13.554 5, 14 5.446, 14 6 L 14 14 C 14 14.554, 13.554 15, 13 15 L 7 15 C 6.446 15, 6 14.554, 6 14 L 6 6 C 6 5.446, 6.446 5, 7 5 Z M 7.25 7 C 7.11193 7, 7 7.11193, 7 7.25 L 7 7.75 C 7 7.889, 7.112 8, 7.25 8 L 12.75 8 C 12.8881 8, 13 7.88807, 13 7.75 L 13 7.25 C 13 7.11193, 12.8881 7, 12.75 7 Z M 7.25 9 C 7.11193 9, 7 9.11193, 7 9.25 L 7 9.75 C 7 9.889, 7.112 10, 7.25 10 L 12.75 10 C 12.8881 10, 13 9.88807, 13 9.75 L 13 9.25 C 13 9.11193, 12.8881 9, 12.75 9 Z M 7.25 11 C 7.11193 11, 7 11.1119, 7 11.25 L 7 11.75 C 7 11.889, 7.112 12, 7.25 12 L 9.75 12 C 9.88807 12, 10 11.8881, 10 11.75 L 10 11.25 C 10 11.1119, 9.88807 11, 9.75 11 Z'
          class="foreground">
  </path>
</svg>
